X:1
T:Title
%%score { 1 | ( 2 3 ) }
L:1/8
Q:1/4=106
M:2/4
K:Ab
V:1 treble nm="Grand Piano"
V:2 bass 
V:3 bass 
V:1
 E2 CD | E2 AB | A2 G2 | G4 | D2 B,C | D2 E2 | F2 E2 | C4 | E2 CD | E2 AB | A2 G2 | G2 Bc | %12
w: ????~??????~???? * *||||||||||||
 [Fd]2 [B,FB]2 | [B,EG]2 [B,DE]2 | [A,CA]4- | [A,CA]2 EA | [Ec]2 c2 | A2 GA | [GB]2 F2 | F2 Bc | %20
w: ||||||||
 d2 dc | [GB]A GA | B4- | B2 EA | [Ec]2 c2 | A2 GA | [FB]2 F2 | F2 Bc | d2 B2 | G2 E2 | [CA]4- | %31
w: |||||||||||
 [CA]4 |] %32
w: |
V:2
 [E,A,C]2 [E,A,][D,G,B,] | [C,A,C]2 CD | [E,A,C]2 [E,B,D]2 | [E,B,D]4 | [E,G,B,]2 [E,G,]2 | %5
 [D,G,B,]2 [C,A,C]2 | [D,A,D]2 [E,G,B,]2 | [A,,A,]4 | [E,A,C]2 [E,A,][D,G,B,] | [C,A,C]2 CD | %10
 [E,A,C]2 [E,B,D]2 | D2 DE | [B,,B,]2 D,2 | E,2 E,2 | A,,4- | A,,2 CC | [A,,A,]2 [E,E]2 | %17
 [A,E]2 [B,E][A,E] | [D,B,]2 [F,D]2 | [B,D]2 DE | [F,DF]2 [B,F][CA] | z F[K:bass] [B,E][A,=D] | %22
 [E,G,D]4- | [E,G,D]2 DD | [A,,A,]2 [E,E]2 | [A,E]2 [B,E][A,E] | [D,A,]2 [F,D]2 | [B,D]2 DE | %28
 [F,DF]2 [B,DF]2 | [E,B,E]2 [E,B,D]2 | [A,,A,]4- | [A,,A,]4 |] %32
V:3
 x4 | z2 [C,A,]2 | x4 | x4 | x4 | x4 | x4 | x4 | x4 | z2 [C,A,]2 | x4 | [E,B,]4 | x4 | x4 | x4 | %15
 x4 | x4 | z2 E,2 | x4 | z2 B,2 | x4 | [E,D]2[K:bass] z2 | x4 | x4 | x4 | z2 E,2 | x4 | z2 B,2 | %28
 x4 | x4 | x4 | x4 |] %32

